src/img/icons/soc_3.svg

<svg width="40" height="40" viewBox="0 0 40 40" fill="none" xmlns="http://www.w3.org/2000/svg">
<g id="3">
<rect id="Rectangle 18623" x="0.5" y="0.5" width="39" height="39" rx="19.5" stroke="#E4DEE0"/>
<g id="Vector">
<path d="M29.6622 15.1961C29.6622 15.1275 29.6622 15.0588 29.5946 14.9902C29.5946 14.9216 29.5946 14.9216 29.5946 14.8529C29.3243 14.098 28.6486 13.549 27.7703 13.549H27.9054C27.9054 13.549 24.527 13 20 13C15.473 13 12.0946 13.549 12.0946 13.549H12.2297C11.4189 13.549 10.6757 14.098 10.4054 14.8529C10.4054 14.8529 10.4054 14.9216 10.4054 14.9902C10.4054 15.0588 10.3378 15.1275 10.3378 15.1961C10.2027 16.0882 10 17.8725 10 20C10 22.1275 10.2027 23.9118 10.3378 24.8039C10.3378 24.8726 10.3378 24.9412 10.4054 25.0098C10.4054 25.0784 10.4054 25.0784 10.4054 25.1471C10.6757 25.902 11.3514 26.451 12.2297 26.451H12.0946C12.0946 26.451 15.473 27 20 27C24.527 27 27.9054 26.451 27.9054 26.451H27.7703C28.5811 26.451 29.3243 25.902 29.5946 25.1471C29.5946 25.0784 29.5946 25.0784 29.5946 25.0098C29.5946 24.9412 29.6622 24.8726 29.6622 24.8039C29.7973 23.9118 30 22.1275 30 20C30 17.8725 29.7973 16.0882 29.6622 15.1961ZM22.973 20.4804L18.9189 23.4314C18.8514 23.5 18.7162 23.5 18.6486 23.5C18.5811 23.5 18.5135 23.5 18.4459 23.4314C18.3108 23.3627 18.1757 23.1569 18.1757 23.0196V17.049C18.1757 16.8431 18.3108 16.7059 18.4459 16.6373C18.5811 16.5686 18.7838 16.5686 18.9865 16.7059L23.0405 19.6569C23.1757 19.7255 23.2432 19.9314 23.2432 20.0686C23.1757 20.2059 23.1081 20.3431 22.973 20.4804Z" fill="white"/>
<path d="M29.6622 15.1961C29.6622 15.1275 29.6622 15.0588 29.5946 14.9902C29.5946 14.9216 29.5946 14.9216 29.5946 14.8529C29.3243 14.098 28.6486 13.549 27.7703 13.549H27.9054C27.9054 13.549 24.527 13 20 13C15.473 13 12.0946 13.549 12.0946 13.549H12.2297C11.4189 13.549 10.6757 14.098 10.4054 14.8529C10.4054 14.8529 10.4054 14.9216 10.4054 14.9902C10.4054 15.0588 10.3378 15.1275 10.3378 15.1961C10.2027 16.0882 10 17.8725 10 20C10 22.1275 10.2027 23.9118 10.3378 24.8039C10.3378 24.8726 10.3378 24.9412 10.4054 25.0098C10.4054 25.0784 10.4054 25.0784 10.4054 25.1471C10.6757 25.902 11.3514 26.451 12.2297 26.451H12.0946C12.0946 26.451 15.473 27 20 27C24.527 27 27.9054 26.451 27.9054 26.451H27.7703C28.5811 26.451 29.3243 25.902 29.5946 25.1471C29.5946 25.0784 29.5946 25.0784 29.5946 25.0098C29.5946 24.9412 29.6622 24.8726 29.6622 24.8039C29.7973 23.9118 30 22.1275 30 20C30 17.8725 29.7973 16.0882 29.6622 15.1961ZM22.973 20.4804L18.9189 23.4314C18.8514 23.5 18.7162 23.5 18.6486 23.5C18.5811 23.5 18.5135 23.5 18.4459 23.4314C18.3108 23.3627 18.1757 23.1569 18.1757 23.0196V17.049C18.1757 16.8431 18.3108 16.7059 18.4459 16.6373C18.5811 16.5686 18.7838 16.5686 18.9865 16.7059L23.0405 19.6569C23.1757 19.7255 23.2432 19.9314 23.2432 20.0686C23.1757 20.2059 23.1081 20.3431 22.973 20.4804Z" fill="#AE9BA5"/>
</g>
</g>
</svg>

<svg xmlns="http://www.w3.org/2000/svg" width="40" height="40" fill="none">
  <rect width="39" height="39" x=".5" y=".5" stroke="#E4DEE0" rx="19.5"/>
  <path fill="#fff" d="M29.662 15.196c0-.069 0-.137-.067-.206v-.137c-.27-.755-.946-1.304-1.825-1.304h.135S24.527 13 20 13s-7.905.549-7.905.549h.135c-.811 0-1.554.549-1.825 1.304v.137c0 .069-.067.137-.067.206A33.691 33.691 0 0 0 10 20c0 2.128.203 3.912.338 4.804 0 .069 0 .137.067.206v.137c.27.755.946 1.304 1.825 1.304h-.135S15.473 27 20 27s7.905-.549 7.905-.549h-.135c.811 0 1.554-.549 1.825-1.304v-.137c0-.069.067-.137.067-.206.135-.892.338-2.676.338-4.804s-.203-3.912-.338-4.804Zm-6.689 5.284-4.054 2.951c-.068.069-.203.069-.27.069-.068 0-.136 0-.203-.069-.135-.068-.27-.274-.27-.411v-5.971c0-.206.135-.343.27-.412.135-.068.338-.068.54.069l4.055 2.95c.135.07.202.275.202.413a1.437 1.437 0 0 1-.27.411Z"/>
  <path fill="#AE9BA5" d="M29.662 15.196c0-.069 0-.137-.067-.206v-.137c-.27-.755-.946-1.304-1.825-1.304h.135S24.527 13 20 13s-7.905.549-7.905.549h.135c-.811 0-1.554.549-1.825 1.304v.137c0 .069-.067.137-.067.206A33.691 33.691 0 0 0 10 20c0 2.128.203 3.912.338 4.804 0 .069 0 .137.067.206v.137c.27.755.946 1.304 1.825 1.304h-.135S15.473 27 20 27s7.905-.549 7.905-.549h-.135c.811 0 1.554-.549 1.825-1.304v-.137c0-.069.067-.137.067-.206.135-.892.338-2.676.338-4.804s-.203-3.912-.338-4.804Zm-6.689 5.284-4.054 2.951c-.068.069-.203.069-.27.069-.068 0-.136 0-.203-.069-.135-.068-.27-.274-.27-.411v-5.971c0-.206.135-.343.27-.412.135-.068.338-.068.54.069l4.055 2.95c.135.07.202.275.202.413a1.437 1.437 0 0 1-.27.411Z"/>
</svg>
